www/assets/icons/pages.svg

<svg xmlns="http://www.w3.org/2000/svg" width="24" height="24" viewBox="0 0 24 24" fill='currentColor'><path d="M3 5v6h5L7 7l4 1V3H5c-1.1 0-2 .9-2 2m5 8H3v6c0 1.1.9 2 2 2h6v-5l-4 1zm9 4-4-1v5h6c1.1 0 2-.9 2-2v-6h-5zm2-14h-6v5l4-1-1 4h5V5c0-1.1-.9-2-2-2"/></svg>

<svg width="24" height="24" viewBox="0 0 24 24" xmlns="http://www.w3.org/2000/svg" fill='currentColor'><path d="M3 5V11H8L7 7L11 8V3H5C3.9 3 3 3.9 3 5ZM8 13H3V19C3 20.1 3.9 21 5 21H11V16L7 17L8 13ZM17 17L13 16V21H19C20.1 21 21 20.1 21 19V13H16L17 17ZM19 3H13V8L17 7L16 11H21V5C21 3.9 20.1 3 19 3Z"/></svg>
